museum/assets/i-telegram.svg

<svg width="41" height="40" viewBox="0 0 41 40" fill="none" xmlns="http://www.w3.org/2000/svg">
<path fill-rule="evenodd" clip-rule="evenodd" d="M20.4995 0C31.4803 0 40.3819 8.90163 40.3819 19.8824C40.3819 30.8631 31.4803 39.7647 20.4995 39.7647C9.51882 39.7647 0.617188 30.8631 0.617188 19.8824C0.617188 8.90163 9.51882 0 20.4995 0ZM30.1818 10.6687C29.984 10.6973 29.7359 10.6954 29.5164 10.7724C29.2516 10.8654 28.9899 10.9671 28.7293 11.0719L27.949 11.3898C27.6639 11.5053 27.3839 11.6329 27.0989 11.7484C26.5567 11.9682 26.0118 12.1816 25.4696 12.401C25.1785 12.5188 24.8909 12.6455 24.6007 12.7653C24.071 12.9841 23.54 13.1995 23.0105 13.4188C22.7259 13.5367 22.4452 13.6639 22.1597 13.7795C21.746 13.9471 21.3283 14.105 20.9146 14.2728C20.6179 14.3933 20.3268 14.5276 20.03 14.6478L18.7169 15.1681C18.4431 15.279 18.1753 15.4043 17.9017 15.5155C17.3146 15.754 16.7251 15.9865 16.1374 16.2236C15.8914 16.3228 15.6487 16.4306 15.4022 16.5288C14.8358 16.7545 14.2678 16.976 13.701 17.2005C13.398 17.3204 13.0955 17.4415 12.7938 17.5642C12.3801 17.7325 11.9672 17.9029 11.5541 18.0724C11.2696 18.1892 10.9857 18.3075 10.7004 18.4225C10.1685 18.6368 9.63584 18.8491 9.10331 19.062C8.77763 19.1922 8.45033 19.319 8.12597 19.4525C7.65191 19.6475 7.16976 19.8298 6.77707 20.1718C6.60285 20.3235 6.44962 20.4963 6.42222 20.7345C6.39115 21.0045 6.6002 21.3623 6.87346 21.4742C7.16313 21.5928 7.4654 21.6826 7.76435 21.7785C8.5247 22.0222 9.28372 22.2703 10.0481 22.5011C10.5809 22.6619 11.1213 22.7977 11.6588 22.9432C12.1486 23.0757 12.6403 23.0936 13.1436 23.0057C13.5639 22.9322 13.9412 22.7876 14.293 22.5469C14.8383 22.1739 15.4015 21.826 15.9545 21.4636C16.5079 21.1008 17.058 20.7333 17.6096 20.3678C18.0749 20.0593 18.5404 19.7513 19.0054 19.4425C19.4907 19.1201 19.9765 18.7985 20.4601 18.4738C20.8354 18.2217 21.2061 17.9631 21.5817 17.7117C22.1955 17.3007 22.8052 16.8828 23.4294 16.4875C23.8754 16.2051 24.3212 15.9182 24.8529 15.7937C25.0015 15.7588 25.1547 15.7452 25.2168 15.8519C25.2763 15.9542 25.2827 16.1396 25.2266 16.2436C25.0747 16.5248 24.9094 16.812 24.6909 17.043C24.1979 17.5644 23.6743 18.058 23.1545 18.5542C22.512 19.1674 21.8633 19.7747 21.2123 20.3793C20.3368 21.1925 19.454 21.9981 18.5794 22.8124C18.2246 23.1427 17.8553 23.4641 17.5445 23.8321C17.2892 24.1343 17.2289 24.5038 17.4128 24.8945C17.5378 25.1601 17.7285 25.3617 17.9514 25.5337C18.4555 25.923 18.9703 26.2994 19.4846 26.676C19.7564 26.875 20.0328 27.0684 20.3132 27.2557C20.8072 27.5857 21.305 27.9102 21.8027 28.235L23.2378 29.1661C23.6417 29.4298 24.0372 29.7067 24.4479 29.9597C24.8165 30.1868 25.1894 30.4129 25.5816 30.5953C25.9017 30.7442 26.2531 30.8279 26.5906 30.9409C27.0091 31.0812 27.4281 31.0742 27.8137 30.8647C28.2766 30.6132 28.5171 30.1753 28.6363 29.6922C28.7495 29.2333 28.7986 28.759 28.8729 28.2912C28.9095 28.0601 28.9346 27.8275 28.9726 27.5967C29.0594 27.0706 29.1518 26.5456 29.2398 26.0197L29.3295 25.4321C29.3947 25.0486 29.4693 24.6665 29.5293 24.2823C29.5923 23.8791 29.635 23.4729 29.7003 23.07C29.8144 22.3658 29.9409 21.6634 30.0581 20.9597C30.0955 20.7347 30.1136 20.5066 30.1508 20.2816C30.2371 19.7613 30.3343 19.2426 30.4179 18.7219C30.4807 18.3311 30.5251 17.9377 30.585 17.5463C30.6756 16.9541 30.7737 16.3629 30.8664 15.7709C30.9221 15.4151 30.9732 15.0585 31.027 14.7024C31.12 14.0858 31.2167 13.4696 31.3053 12.8524C31.3446 12.5788 31.3603 12.3021 31.4003 12.0287C31.4482 11.7018 31.3805 11.3955 31.2152 11.1198C30.9948 10.7521 30.6151 10.688 30.1818 10.6687Z" fill="#121212"/>
</svg>

<svg width="41" height="40" viewBox="0 0 41 40" fill="none" xmlns="http://www.w3.org/2000/svg"><path fill-rule="evenodd" clip-rule="evenodd" d="M20.5 0c10.98 0 19.882 8.902 19.882 19.882 0 10.981-8.902 19.883-19.882 19.883C9.519 39.765.617 30.863.617 19.882.617 8.902 9.52 0 20.5 0Zm9.682 10.669c-.198.028-.446.026-.666.103-.264.093-.526.195-.787.3l-.78.318c-.285.115-.565.243-.85.358-.542.22-1.087.434-1.63.653-.29.118-.578.245-.868.364-.53.22-1.061.434-1.59.654-.285.118-.566.245-.851.36-.414.168-.832.326-1.245.494-.297.12-.588.255-.885.375l-1.313.52c-.274.111-.542.236-.815.348-.587.238-1.177.47-1.765.708-.246.099-.488.207-.735.305-.566.226-1.134.447-1.701.672-.303.12-.606.24-.907.363l-1.24.508c-.284.117-.568.236-.854.35-.531.215-1.064.427-1.597.64-.325.13-.653.257-.977.39-.474.195-.956.378-1.349.72-.174.151-.327.324-.355.563-.03.27.178.627.451.74.29.118.592.208.891.303.76.244 1.52.492 2.284.723.533.16 1.073.297 1.61.442.49.133.982.15 1.486.063a2.86 2.86 0 0 0 1.149-.46c.545-.372 1.109-.72 1.662-1.082.553-.363 1.103-.73 1.655-1.096l1.395-.925c.486-.323.972-.645 1.455-.97.375-.251.746-.51 1.122-.761.613-.411 1.223-.83 1.847-1.224.446-.283.892-.57 1.424-.694.148-.035.302-.049.364.058.06.102.066.288.01.392-.152.28-.318.568-.536.799-.493.521-1.017 1.015-1.537 1.511-.642.613-1.29 1.22-1.942 1.825-.875.813-1.758 1.62-2.633 2.433-.354.33-.724.652-1.035 1.02-.255.302-.315.672-.131 1.063.125.265.316.467.538.639.505.389 1.02.765 1.534 1.142.271.199.548.392.828.58.494.33.992.654 1.49.979l1.435.931c.404.264.8.54 1.21.794.369.227.741.453 1.134.635.32.15.671.233 1.009.346.418.14.837.133 1.223-.076.463-.252.703-.69.822-1.173.114-.459.163-.933.237-1.4.037-.232.062-.465.1-.695.086-.526.179-1.051.267-1.577l.09-.588c.065-.383.14-.765.2-1.15.062-.403.105-.81.17-1.212.114-.704.24-1.407.358-2.11.038-.225.056-.453.093-.678.086-.52.183-1.04.267-1.56.063-.39.107-.784.167-1.176.09-.592.189-1.183.281-1.775.056-.356.107-.713.161-1.069.093-.616.19-1.232.278-1.85.04-.273.055-.55.095-.823a1.35 1.35 0 0 0-.185-.91c-.22-.367-.6-.431-1.033-.45Z" fill="#121212"/></svg>
